X: 1319
T: Kırmızı Gülün Alı Var
C: Udî Hacı Kadri Şençalar
O: Turkey
F: http://compmusic.upf.edu/node/140
N: hicaz--rumeliturkusu--sofyan--kirmizi_gulun--
N: makam= hicaz
N: form= rumeliturkusu
N: usul= sofyan = 4/4
M: 4/4
L: 1/16
K: C _7/8B ^f ^c 
Q: 1/4=78
%%MIDI tuningsystem comma53
d3c =B2c2 d4 e4  | =f3e d2d2 c2d2 d2d2  | \
w:  ARANAĞME  |   | 
dcde c2B2 A2d2 c2B2  | 
w:   | 
BAA6 A2G2 c2Bc  | BAA14  | d3c =B2c2 d4 e4  | \
w:   |   |  ARANAĞME  | 
=f3e d2d2 c2d2 d2d2  | 
w:   | 
dcde c2B2 A2d2 c2B2  | BAA6 A2G2 c2Bc  | \
w:   |   | 
BAA6 A2BA GABc  | 
w:   | 
d4 A4 d4 c4  | d8 c2d2 e4  | e4 =f3e d3c B4  | \
w:  *  Kır mı zı   |  gü  |  *  lün  *  a *  lı   | 
c6d2 d3/2c/=B2 dcBc  | 
w:  var  a man  *  *  *  *  *  a  | 
=B16  | d3c =B2c2 d4 e4  | =f3e d4 c2d2 e2{f}ed  | \
w:  man    |  Her  *  *  gün  ağ la  |  sam  *  *  ye *  *  *  ri   | 
d8 dABc d2ef  | 
w:  var   SAZ  | 
g4 g4 =f4 e4  | =f3e d4 c2d2 e8 f3e d3c BAB2  | \
w:  *  Bu gün  be  |  nim  *  *  *  *  *  ef *  kâ *  rım   | 
c6d2 d3/2c/=B2 dcBc  | 
w:  var  a man  *  *  *  *  *  a  | 
=B16  | d3c =B2c2 d4 e4  | =f3e d2d2 c2d2 d2d2  | \
w:  man    |  Ah  *  *  bu  gö nül   |  ar zu  e der  se ni  se ni   | 
dcde c2B2 A2d2 c2B2  | 
w:  yâr   | 
BAA6 A2G2 c2Bc  | B2A4A2 AcBA GABc  | \
w:  se  |  ni   *  SAZ  | 
d3c =B2c2 d4 e4  | 
w:  Ah  *  *  bu  gö nül   | 
=f3e d2d2 c2d2 d2d2  | dcde c2B2 A2d2 c2B2  | \
w:  ar zu  e der  se ni  se ni   |  yâr   | 
BAA6 A2G2 c2Bc  | 
w:  se  | 
B2A14  | d3c =B2c2 d4 e4  | =f3e d2d2 c2d2 d2d2  | \
w:  ni    |  ARANAĞME  |   | 
dcde c2B2 A2d2 c2B2  | 
w:   | 
BAA6 A2G2 c2Bc  | BAA14  | d3c =B2c2 d4 e4  | \
w:   |   |  ARANAĞME  | 
=f3e d2d2 c2d2 d2d2  | 
w:   | 
dcde c2B2 A2d2 c2B2  | BAA6 A2G2 c2Bc  | \
w:   |   | 
BAA6 A2BA GABc  | 
w:   | 
d4 A4 d4 c4  | d8 c2d2 e4  | e4 =f3e d3c B4  | \
w:  *  Kır mı zı   |  gü  |  *  lün  *  a *  lı   | 
c6d2 d3/2c/=B2 dcBc  | 
w:  var  a man  *  *  *  *  *  a  | 
=B16  | d3c =B2c2 d4 e4  | =f3e d4 c2d2 e2{f}ed  | \
w:  man    |  Her  *  *  gün  ağ la  |  sam  *  *  ye *  *  *  ri   | 
d8 dABc d2ef  | 
w:  var   SAZ  | 
g4 g4 =f4 e4  | =f3e d4 c2d2 e8 f3e d3c BAB2  | \
w:  *  Bu gün  be  |  nim  *  *  *  *  *  ef *  kâ *  rım   | 
c6d2 d3/2c/=B2 dcBc  | 
w:  var  a man  *  *  *  *  *  a  | 
=B16  | d3c =B2c2 d4 e4  | =f3e d2d2 c2d2 d2d2  | \
w:  man    |  Ah  *  *  bu  gö nül   |  ar zu  e der  se ni  se ni   | 
dcde c2B2 A2d2 c2B2  | 
w:  yâr   | 
BAA6 A2G2 c2Bc  | B2A4A2 AcBA GABc  | \
w:  se  |  ni   *  SAZ  | 
d3c =B2c2 d4 e4  | 
w:  Ah  *  *  bu  gö nül   | 
=f3e d2d2 c2d2 d2d2  | dcde c2B2 A2d2 c2B2  | \
w:  ar zu  e der  se ni  se ni   |  yâr   | 
BAA6 A2G2 c2Bc  | 
w:  se  | 
B2A14  | |


